X:1
T:Reel de Mattawa
C:Richard Forest
R:reel
M:C|
K:Em
|: "Em"gefd ecdB | "D"ABAF DEFD | "Em"EFGA B2ef | "C"gfed "D"A2ef |
   "Em"gefd ecdB | "D"ABAF DEFD | "Em"EFGA "C"B2AG | "Bm"FAGF "Em"E3z :|
|: "Em"B2eB gBeB | ABeB gBeB | "D"d2fd gdfd | A2dA fAdA |
   "Em"B2eB gBeB | "C"=c2ec gcec | "D"f3g fedc | "Bm"Bcd2 "Em"e3z :|
N:From printout - abc by Peter Ostapenko.
N:Last update - PO 4/14/2008.
N:E Minor
